public/shapes/square.svg

<!-- Generated by IcoMoon.io -->
<svg version="1.1" xmlns="http://www.w3.org/2000/svg" width="24" height="24" viewBox="0 0 24 24">
<title>square</title>
<path d="M5 2c-0.828 0-1.58 0.337-2.121 0.879s-0.879 1.293-0.879 2.121v14c0 0.828 0.337 1.58 0.879 2.121s1.293 0.879 2.121 0.879h14c0.828 0 1.58-0.337 2.121-0.879s0.879-1.293 0.879-2.121v-14c0-0.828-0.337-1.58-0.879-2.121s-1.293-0.879-2.121-0.879zM5 4h14c0.276 0 0.525 0.111 0.707 0.293s0.293 0.431 0.293 0.707v14c0 0.276-0.111 0.525-0.293 0.707s-0.431 0.293-0.707 0.293h-14c-0.276 0-0.525-0.111-0.707-0.293s-0.293-0.431-0.293-0.707v-14c0-0.276 0.111-0.525 0.293-0.707s0.431-0.293 0.707-0.293z"></path>
</svg>

<svg xmlns="http://www.w3.org/2000/svg" width="24" height="24">
  <path d="M5 2c-.828 0-1.58.337-2.121.879S2 4.172 2 5v14c0 .828.337 1.58.879 2.121S4.172 22 5 22h14c.828 0 1.58-.337 2.121-.879S22 19.828 22 19V5c0-.828-.337-1.58-.879-2.121S19.828 2 19 2zm0 2h14c.276 0 .525.111.707.293S20 4.724 20 5v14c0 .276-.111.525-.293.707S19.276 20 19 20H5c-.276 0-.525-.111-.707-.293S4 19.276 4 19V5c0-.276.111-.525.293-.707S4.724 4 5 4z"/>
</svg>
